X:1
T:Title
%%score 1 2
L:1/8
Q:1/4=97
M:3/4
K:Eb
V:1 treble nm="Grand Piano, Soprano"
V:2 bass nm="Choir Pad, Bass"
V:1
 [B,E]>[EG] [GB]3 [Ac] | [GB]>[EG] [GB]4 | E>[EF] [EG]4 | [B,E]2 [B,F]2 [B,E]2- | %4
w: By~Daniel~Brink~Towner,~1896 * * *||||
 [B,E]2 [B,E]>[EG] [GB]2- | [GB][Ac] [GB]>[EG] [GB]2- | [GB]2 E>[EF] [EG]2- | [EG]2 [B,E]2 [B,F]2 | %8
w: ||||
 [B,E]4 [EG]>[GB] | [Ge]3 [GB] [Ac]>[Ac] | [GB]4 [EG]>[EB] | [Ec]3 [EB] [DA]>[EG] | %12
w: ||||
 [DF]4 [EG]>[GB] | [Ge]3 [GB] [Ac]>[Ac] | [GB]4 [B,E]>[EG] | [GB]4 [EG]2 | [DF]2 E4- | E4 z2 |] %18
w: ||||||
V:2
 [E,G,]>[E,B,] [E,E]3 [E,E] | [E,E]>[E,B,] [E,E]4 | [E,G,]>[E,A,] [E,B,]4 | %3
 [E,G,]2 [B,,A,]2 [E,G,]2- | [E,G,]2 [E,G,]>[E,B,] [E,E]2- | [E,E][E,E] [E,E]>[E,B,] [E,E]2- | %6
 [E,E]2 [E,G,]>[E,A,] [E,B,]2- | [E,B,]2 [E,G,]2 [B,,A,]2 | [E,G,]4 [E,B,]>[E,B,] | %9
 [E,B,]3 [E,E] [A,E]>[A,E] | [E,E]4 [E,B,]>[G,B,] | A,3 [G,B,] [F,B,]>[E,B,] | %12
 [B,,B,]4 [E,B,]>[E,B,] | [E,B,]3 [E,E] [A,E]>[A,E] | [E,E]4 [E,G,]>[E,B,] | [E,E]4 [E,B,]2 | %16
 [B,,A,]2 [E,G,]4- | [E,G,]4 z2 |] %18

